RCanvas/rlegend.svg

<svg width="1200" height="800" viewBox="0 0 1000 700" preserveAspectRatio="none" xmlns="http://www.w3.org/2000/svg">
 <defs>
  <pattern id="pat_3019_000078" patternUnits="userSpaceOnUse" width="12" height="12">
   <path d="M1,6A5,5,0,0,0,11,6A5,5,0,0,0,1,6h-1h1A5,5,0,0,1,6,11v1v-1A5,5,0,0,1,11,6h1h-1A5,5,0,0,1,6,1v-1v1A5,5,0,0,1,1,6" style="stroke: #00007819; stroke-width: 1; fill: none;"></path>
  </pattern>
  <pattern id="pat_3004_0000ff" patternUnits="userSpaceOnUse" width="8" height="8">
   <path d="M8,0L0,8" style="stroke: #0000FF; stroke-width: 1;"></path>
  </pattern>
 </defs>
 <path d="M0,0H1000V700H0Z" style="fill: white;"></path>
 <g>
  <g transform="translate(70,84)">
   <rect x="0" y="0" width="880" height="532" style="fill: none; stroke: black; stroke-width: 1;"></rect>
   <svg x="0" y="0" overflow="hidden" width="880" height="532" viewBox="0 0 880 532">
    <g>
     <path d="M0,532h70v-24h36v-47h35v-94h35v-167h35v-88h35v-87h36v11h35v123h35v237h35v79h35v31h36v21h35v5h387" style="stroke-linejoin: miter; stroke: #FF0000; stroke-width: 2; fill: none;"></path>
    </g>
    <g>
     <path d="M0,532h317v-8h35v-16h35v-20h35v-50h36v-68h35v-50h35v-54h35v-27h35v-120h36v71h35v70h35v100h35v26h35v55h36v57h35v10h35" style="stroke-linejoin: miter; stroke: #0000FF; stroke-width: 4; fill: none;"></path>
    </g>
   </svg>
   <g>
    <g transform="translate(0,532)">
     <path d="M0,-14v14m44,-7v7m44,-7v7m44,-7v7m44,-14v14m44,-7v7m44,-7v7m44,-7v7m44,-14v14m44,-7v7m44,-7v7m44,-7v7m44,-14v14m44,-7v7m44,-7v7m44,-7v7m44,-14v14m44,-7v7m44,-7v7m44,-7v7m44,-14v14" style="stroke: black;"></path>
     <g font-family="Arial" font-size="21" space="preserve">
      <text text-anchor="middle" dy=".8em" transform="translate(0,4)">
       0
      </text>
      <text text-anchor="middle" dy=".8em" transform="translate(176,4)">
       2
      </text>
      <text text-anchor="middle" dy=".8em" transform="translate(352,4)">
       4
      </text>
      <text text-anchor="middle" dy=".8em" transform="translate(528,4)">
       6
      </text>
      <text text-anchor="middle" dy=".8em" transform="translate(704,4)">
       8
      </text>
      <text text-anchor="middle" dy=".8em" transform="translate(880,4)">
       10
      </text>
     </g>
    </g>
    <g transform="translate(0,532)">
     <path d="M20,0h-20m10,-26h-10m10,-26h-10m10,-26h-10m10,-26h-10m20,-27h-20m10,-26h-10m10,-26h-10m10,-26h-10m10,-26h-10m20,-26h-20m10,-26h-10m10,-26h-10m10,-27h-10m10,-26h-10m20,-26h-20m10,-26h-10m10,-26h-10m10,-26h-10m10,-26h-10m20,-26h-20" style="stroke: black;"></path>
     <g font-family="Arial" font-size="21" space="preserve">
      <text text-anchor="end" dy=".4em" transform="translate(-5)">
       0
      </text>
      <text text-anchor="end" dy=".4em" transform="translate(-5,-131)">
       50
      </text>
      <text text-anchor="end" dy=".4em" transform="translate(-5,-261)">
       100
      </text>
      <text text-anchor="end" dy=".4em" transform="translate(-5,-392)">
       150
      </text>
      <text text-anchor="end" dy=".4em" transform="translate(-5,-522)">
       200
      </text>
     </g>
    </g>
   </g>
  </g>
  <g transform="translate(630,98)" font-family="Arial" font-size="41" space="preserve">
   <rect x="0" width="300" y="0" height="210" style="stroke: #FF0000; stroke-width: 2; fill: url(#pat_3019_000078);"></rect>
   <text fill="black" text-anchor="middle" dy=".4em" transform="translate(150,26)">
    Legend title
   </text>
   <text fill="black" text-anchor="middle" dy=".4em" transform="translate(191,79)">
    histo1
   </text>
   <path d="M6,79h75" style="stroke: #FF0000; stroke-width: 2;"></path>
   <text fill="black" text-anchor="middle" dy=".4em" transform="translate(191,131)">
    histo2
   </text>
   <path d="M6,131h75" style="stroke: #0000FF; stroke-width: 4;"></path>
   <text fill="black" text-anchor="middle" dy=".4em" transform="translate(191,184)">
    test
   </text>
   <path d="M6,163h75v42h-75z" style="fill: url(#pat_3004_0000ff);"></path>
   <path d="M6,184h75" style="stroke: #008000; stroke-width: 5;"></path>
   <path d="M47,187h7v-7h-7v-7h-7v7h-7v7h7v7h7z" style="stroke: #FF0000; fill: none;"></path>
  </g>
 </g>
</svg>

<svg width="1200" height="800" viewBox="0 0 1000 700" preserveAspectRatio="none" xmlns="http://www.w3.org/2000/svg">
 <defs>
  <pattern id="pat_3019_000078" patternUnits="userSpaceOnUse" width="12" height="12">
   <path d="M1,6A5,5,0,0,0,11,6A5,5,0,0,0,1,6h-1h1A5,5,0,0,1,6,11v1v-1A5,5,0,0,1,11,6h1h-1A5,5,0,0,1,6,1v-1v1A5,5,0,0,1,1,6" style="stroke: #00007819; stroke-width: 1; fill: none;"></path>
  </pattern>
  <pattern id="pat_3004_0000ff" patternUnits="userSpaceOnUse" width="8" height="8">
   <path d="M8,0L0,8" style="stroke: #0000FF; stroke-width: 1;"></path>
  </pattern>
 </defs>
 <path d="M0,0H1000V700H0Z" style="fill: white;"></path>
 <g>
  <g transform="translate(70,84)">
   <rect x="0" y="0" width="880" height="532" style="fill: none; stroke: black; stroke-width: 1;"></rect>
   <svg x="0" y="0" overflow="hidden" width="880" height="532" viewBox="0 0 880 532">
    <g>
     <path d="M0,532h70v-24h36v-47h35v-94h35v-167h35v-88h35v-87h36v11h35v123h35v237h35v79h35v31h36v21h35v5h387" style="stroke-linejoin: miter; stroke: #FF0000; stroke-width: 2; fill: none;"></path>
    </g>
    <g>
     <path d="M0,532h317v-8h35v-16h35v-20h35v-50h36v-68h35v-50h35v-54h35v-27h35v-120h36v71h35v70h35v100h35v26h35v55h36v57h35v10h35" style="stroke-linejoin: miter; stroke: #0000FF; stroke-width: 4; fill: none;"></path>
    </g>
   </svg>
   <g>
    <g transform="translate(0,532)">
     <path d="M0,-14V0M44,-7V0M88,-7V0M132,-7V0M176,-14V0M220,-7V0M264,-7V0M308,-7V0M352,-14V0M396,-7V0M440,-7V0M484,-7V0M528,-14V0M572,-7V0M616,-7V0M660,-7V0M704,-14V0M748,-7V0M792,-7V0M836,-7V0M880,-14V0" style="stroke: black;"></path>
     <g font-family="Arial" font-size="21" space="preserve">
      <text text-anchor="middle" dy=".8em" transform="translate(0,4)">
       0
      </text>
      <text text-anchor="middle" dy=".8em" transform="translate(176,4)">
       2
      </text>
      <text text-anchor="middle" dy=".8em" transform="translate(352,4)">
       4
      </text>
      <text text-anchor="middle" dy=".8em" transform="translate(528,4)">
       6
      </text>
      <text text-anchor="middle" dy=".8em" transform="translate(704,4)">
       8
      </text>
      <text text-anchor="middle" dy=".8em" transform="translate(880,4)">
       10
      </text>
     </g>
    </g>
    <g transform="translate(0,532)">
     <path d="M20,0H0M10,-26H0M10,-52H0M10,-78H0M10,-104H0M20,-131H0M10,-157H0M10,-183H0M10,-209H0M10,-235H0M20,-261H0M10,-287H0M10,-313H0M10,-340H0M10,-366H0M20,-392H0M10,-418H0M10,-444H0M10,-470H0M10,-496H0M20,-522H0" style="stroke: black;"></path>
     <g font-family="Arial" font-size="21" space="preserve">
      <text text-anchor="end" dy=".4em" transform="translate(-5)">
       0
      </text>
      <text text-anchor="end" dy=".4em" transform="translate(-5,-131)">
       50
      </text>
      <text text-anchor="end" dy=".4em" transform="translate(-5,-261)">
       100
      </text>
      <text text-anchor="end" dy=".4em" transform="translate(-5,-392)">
       150
      </text>
      <text text-anchor="end" dy=".4em" transform="translate(-5,-522)">
       200
      </text>
     </g>
    </g>
   </g>
  </g>
  <g transform="translate(630,98)" font-family="Arial" font-size="41" space="preserve">
   <rect x="0" width="300" y="0" height="210" style="stroke: #FF0000; stroke-width: 2; fill: url(#pat_3019_000078);"></rect>
   <text fill="black" text-anchor="middle" dy=".4em" transform="translate(150,26)">
    Legend title
   </text>
   <text fill="black" text-anchor="middle" dy=".4em" transform="translate(191,79)">
    histo1
   </text>
   <path d="M6,79h75" style="stroke: #FF0000; stroke-width: 2;"></path>
   <text fill="black" text-anchor="middle" dy=".4em" transform="translate(191,131)">
    histo2
   </text>
   <path d="M6,131h75" style="stroke: #0000FF; stroke-width: 4;"></path>
   <text fill="black" text-anchor="middle" dy=".4em" transform="translate(191,184)">
    test
   </text>
   <path d="M6,163h75v42h-75z" style="fill: url(#pat_3004_0000ff);"></path>
   <path d="M6,184h75" style="stroke: #008000; stroke-width: 5;"></path>
   <path d="M47,187h7v-7h-7v-7h-7v7h-7v7h7v7h7z" style="stroke: #FF0000; fill: none;"></path>
  </g>
 </g>
</svg>
